src/assets/icons/muscles_parts/shoulders_back.svg

<svg id="Layer_2" enable-background="new 0 0 512 512" viewBox="0 0 512 512" xmlns="http://www.w3.org/2000/svg"><g><g><path d="m253.7 507.294c-53.055 0-113.206-35.77-115.74-37.292-1.165-.699-1.895-1.942-1.938-3.301l-1.394-43.587c-.008-.259.009-.519.051-.773l8.339-50.958c2.197-13.428-1.431-26.998-9.952-37.231-5.459-6.555-8.987-12.426-11.137-16.613l-18.654 24.101c.594 7.312 1.471 36.451-17.722 69.353-.614 1.053-1.674 1.768-2.88 1.942-1.201.179-2.425-.208-3.313-1.042l-54.464-51.153c-.805-.757-1.262-1.812-1.262-2.916v-40.857c0-.048.001-.095.003-.143 1.795-50.276 28.202-74.486 36.112-80.635-1.533-9.755-5.849-45.496 6.415-80.234 12.891-36.517 57.436-52.173 62.786-53.936l71.668-42.661 6.782-44.589c.254-1.675 1.537-3.008 3.201-3.327l22.569-4.328c13.614-2.608 27.428-2.654 41.056-.133l24.078 4.456c1.676.311 2.971 1.647 3.227 3.332l6.782 44.589 71.667 42.661c5.346 1.761 49.896 17.417 62.786 53.936 12.374 35.051 6.543 69.822 4.645 78.962 7.206 7.366 34.528 38.557 36.35 89.554.002.047.003.095.003.143v33.211c0 1.085-.44 2.123-1.221 2.876l-52.929 51.152c-.882.854-2.104 1.25-3.326 1.087-1.217-.169-2.289-.887-2.908-1.947-19.192-32.901-18.316-62.04-17.723-69.353l-18.653-24.101c-2.149 4.188-5.678 10.059-11.136 16.613-8.523 10.234-12.15 23.804-9.954 37.231l8.339 50.958c.042.255.059.515.051.773l-1.393 43.587c-.044 1.373-.79 2.628-1.976 3.323-2.595 1.522-64.204 37.27-117.235 37.27z" fill="#484f69"/></g><g><path d="m249.341 26.421v40.573c0 11.104-4.525 21.699-12.471 29.202l-6.777 6.398 7.004 5.929c7.752 6.562 12.244 16.354 12.244 26.69v168.175c0 3.098-3.995 4.176-5.469 1.476l-53.144-77.005c-1.911-3.499-2.69-7.526-2.253-11.515 2.17-19.774 3.316-83.149-42.294-101.898-4.63-1.903-4.992-8.496-.564-10.854l59.534-31.704 34.672-48.678c3.012-4.229 9.518-2.034 9.518 3.211z" fill="#9fabce"/></g><path d="m113.143 114.779c6.027-2.874 12.982-3.088 19.236-.746 10.423 3.903 26.356 10.267 34.07 26.796 5.011 10.738-48.043 6.593-53.194 46.803-.703 5.487-3.54 10.492-7.894 13.904-3.472 2.721-4.255 2.722-27.78 23.883-3.378 3.039-8.786 1.387-9.859-3.029-5.538-22.785-12.627-79.931 45.421-107.611z" fill="#FF4858"/><g><path d="m118.879 198.948c-.044-17.535 10.978-33.187 27.502-39.054l19.393-6.886c4.644-2.211 9.247 1.088 10.362 6.109 3.087 13.9 6.93 31.297 3.483 58.609-.469 3.714-3.018 6.843-6.564 8.045l-45.876 15.542c-4.232 1.434-8.585-1.819-8.406-6.284.149-3.725.146-20.475.106-36.081z" fill="#9fabce"/></g><g><path d="m129.544 246.451c-4.748 1.043-8.065 5.325-7.979 10.186.19 10.723 1.34 29.321 6.515 44.641 11.65 34.484 38.777 59.506 41.401 85.549.162 1.606 2.013 2.425 3.328 1.488l59.628-67.301c4.358-3.105 5.61-9.032 2.88-13.634l-49.51-70.957c-2.853-3.676-7.737-5.103-12.118-3.535-10.47 3.75-30.039 10.465-44.145 13.563z" fill="#9fabce"/></g><g><path d="m86.231 233.651c-5.229 11.56-12.506 29.993-14.433 46.643-.855 7.391-3.67 14.42-8.408 20.156-2.914 3.527-5.86 8.533-7.432 15.346-2.143 9.287-8.72 17.768-14.045 23.396-3.105 3.282-8.639 1.423-9.137-3.067-2.361-21.294-1.819-71.847 48.037-106.97 3.027-2.132 6.944 1.123 5.418 4.496z" fill="#9fabce"/></g><g><path d="m108.464 212.481c1.953-2.366 5.8-.806 5.555 2.252-1.183 14.768-2.758 43.298.873 60.546 4.187 19.889-21.446 55.068-40.784 69.046-3.613 2.612-8.409-1.107-6.816-5.272l5.66-14.799c4.268-11.161 6.601-22.989 6.672-34.938.101-17.255 4.463-47.31 28.84-76.835z" fill="#9fabce"/></g><g><path d="m249.341 326.56v159.099c0 4.211-4.761 6.518-7.908 3.832l-17.475-14.912c-10.574-9.023-23.873-13.961-37.602-13.961-6.023 0-11.003-4.836-11.359-11.032l-2.501-43.492c-.297-5.161 2-10.117 6.082-13.123l63.126-70.459c3.196-2.354 7.637 0 7.637 4.048z" fill="#9fabce"/></g><g><path d="m153.688 364.861s11.093 45.266 15.087 88.54c.308 3.334-2.865 6.013-6.203 6.285l-8.569.861c-3.57.291-6.749-2.251-7.25-5.797l-1.822-12.884c-1.613-11.401-1.074-23.003 1.588-34.205z" fill="#9fabce"/></g><g><path d="m257.794 26.421v40.573c0 11.104 4.525 21.699 12.471 29.202l6.777 6.398-7.004 5.929c-7.752 6.562-12.244 16.354-12.244 26.69v168.175c0 3.098 3.995 4.176 5.469 1.476l53.144-77.005c1.911-3.499 2.69-7.526 2.253-11.515-2.17-19.774-3.316-83.149 42.294-101.898 4.63-1.903 4.992-8.496.564-10.854l-59.534-31.704-34.672-48.678c-3.013-4.229-9.518-2.034-9.518 3.211z" fill="#9fabce"/></g><path d="m393.991 114.779c-6.027-2.874-12.982-3.088-19.236-.746-10.423 3.903-26.356 10.267-34.07 26.796-5.001 10.716 49.38 7.184 53.425 46.654.575 5.606 3.404 10.745 7.853 14.203 3.317 2.578 4.502 2.967 27.589 23.733 3.378 3.039 8.786 1.387 9.859-3.029 5.54-22.785 12.629-79.931-45.42-107.611z" fill="#FF4858"/><g><path d="m388.256 198.948c.044-17.535-10.978-33.187-27.502-39.054l-19.393-6.886c-4.643-2.211-9.247 1.088-10.362 6.109-3.087 13.9-6.93 31.297-3.483 58.609.469 3.714 3.018 6.843 6.564 8.045l45.876 15.542c4.232 1.434 8.585-1.819 8.406-6.284-.149-3.725-.146-20.475-.106-36.081z" fill="#9fabce"/></g><g><path d="m377.591 246.451c4.748 1.043 8.065 5.325 7.979 10.186-.19 10.723-1.34 29.321-6.515 44.641-11.65 34.484-38.777 59.506-41.401 85.549-.162 1.606-2.013 2.425-3.328 1.488l-59.628-66.301c-4.358-3.105-5.61-9.032-2.88-13.634l49.51-71.957c2.853-3.676 7.737-5.103 12.118-3.535 10.47 3.75 30.038 10.465 44.145 13.563z" fill="#9fabce"/></g><g><path d="m420.903 233.651c5.229 11.56 12.506 29.993 14.433 46.643.855 7.391 3.67 14.42 8.408 20.156 2.914 3.527 5.86 8.533 7.432 15.346 2.143 9.287 8.72 17.768 14.045 23.396 3.105 3.282 8.639 1.423 9.137-3.067 2.361-21.294 1.819-71.847-48.037-106.97-3.026-2.132-6.943 1.123-5.418 4.496z" fill="#9fabce"/></g><g><path d="m398.671 212.481c-1.953-2.366-5.8-.806-5.555 2.252 1.183 14.768 2.758 43.298-.873 60.546-4.187 19.889 21.446 55.068 40.784 69.046 3.613 2.612 8.409-1.107 6.816-5.272l-5.66-14.799c-4.268-11.161-6.601-22.989-6.672-34.938-.101-17.255-4.463-47.31-28.84-76.835z" fill="#9fabce"/></g><g><path d="m257.794 326.56v159.099c0 4.211 4.761 6.518 7.908 3.832l17.475-14.912c10.574-9.023 23.873-13.961 37.602-13.961 6.023 0 11.003-4.836 11.359-11.032l2.501-43.492c.297-5.161-2-10.117-6.082-13.123l-63.126-70.459c-3.196-2.354-7.637 0-7.637 4.048z" fill="#9fabce"/></g><g><path d="m353.447 364.861s-11.093 45.266-15.087 88.54c-.308 3.334 2.865 6.013 6.203 6.285l8.569.861c3.57.291 6.749-2.251 7.25-5.797l1.822-12.884c1.613-11.401 1.074-23.003-1.588-34.205z" fill="#9fabce"/></g></g></svg>

<svg  viewBox="0 0 512 512" fill="none" xmlns="http://www.w3.org/2000/svg">
<path d="M253.7 507.294C200.645 507.294 140.494 471.524 137.96 470.002C136.795 469.303 136.065 468.06 136.022 466.701L134.628 423.114C134.62 422.855 134.637 422.595 134.679 422.341L143.018 371.383C145.215 357.955 141.587 344.385 133.066 334.152C127.607 327.597 124.079 321.726 121.929 317.539L103.275 341.64C103.869 348.952 104.746 378.091 85.553 410.993C84.939 412.046 83.879 412.761 82.673 412.935C81.472 413.114 80.248 412.727 79.36 411.893L24.896 360.74C24.091 359.983 23.634 358.928 23.634 357.824V316.967C23.634 316.919 23.635 316.872 23.637 316.824C25.432 266.548 51.839 242.338 59.749 236.189C58.216 226.434 53.9 190.693 66.164 155.955C79.055 119.438 123.6 103.782 128.95 102.019L200.618 59.358L207.4 14.769C207.654 13.094 208.937 11.761 210.601 11.442L233.17 7.114C246.784 4.506 260.598 4.46 274.226 6.981L298.304 11.437C299.98 11.748 301.275 13.084 301.531 14.769L308.313 59.358L379.98 102.019C385.326 103.78 429.876 119.436 442.766 155.955C455.14 191.006 449.309 225.777 447.411 234.917C454.617 242.283 481.939 273.474 483.761 324.471C483.763 324.518 483.764 324.566 483.764 324.614V357.825C483.764 358.91 483.324 359.948 482.543 360.701L429.614 411.853C428.732 412.707 427.51 413.103 426.288 412.94C425.071 412.771 423.999 412.053 423.38 410.993C404.188 378.092 405.064 348.953 405.657 341.64L387.004 317.539C384.855 321.727 381.326 327.598 375.868 334.152C367.345 344.386 363.718 357.956 365.914 371.383L374.253 422.341C374.295 422.596 374.312 422.856 374.304 423.114L372.911 466.701C372.867 468.074 372.121 469.329 370.935 470.024C368.34 471.546 306.731 507.294 253.7 507.294Z" fill="#484F69"/>
<path d="M249.341 26.4212V66.9942C249.341 78.0982 244.816 88.6932 236.87 96.1962L230.093 102.594L237.097 108.523C244.849 115.085 249.341 124.877 249.341 135.213V303.388C249.341 306.486 245.346 307.564 243.872 304.864L190.728 227.859C188.817 224.36 188.038 220.333 188.475 216.344C190.645 196.57 191.791 133.195 146.181 114.446C141.551 112.543 141.189 105.95 145.617 103.592L205.151 71.8882L239.823 23.2102C242.835 18.9812 249.341 21.1762 249.341 26.4212Z" fill="#9FABCE"/>
<path d="M113.143 114.779C119.17 111.905 126.125 111.691 132.379 114.033C142.802 117.936 158.735 124.3 166.449 140.829C171.46 151.567 118.406 147.422 113.255 187.632C112.552 193.119 109.715 198.124 105.361 201.536C101.889 204.257 101.106 204.258 77.581 225.419C74.203 228.458 68.795 226.806 67.722 222.39C62.184 199.605 55.095 142.459 113.143 114.779Z" fill="#FF4858"/>
<path d="M118.879 198.948C118.835 181.413 129.857 165.761 146.381 159.894L165.774 153.008C170.418 150.797 175.021 154.096 176.136 159.117C179.223 173.017 183.066 190.414 179.619 217.726C179.15 221.44 176.601 224.569 173.055 225.771L127.179 241.313C122.947 242.747 118.594 239.494 118.773 235.029C118.922 231.304 118.919 214.554 118.879 198.948Z" fill="#9FABCE"/>
<path d="M129.544 246.451C124.796 247.494 121.479 251.776 121.565 256.637C121.755 267.36 122.905 285.958 128.08 301.278C139.73 335.762 166.857 360.784 169.481 386.827C169.643 388.433 171.494 389.252 172.809 388.315L232.437 321.014C236.795 317.909 238.047 311.982 235.317 307.38L185.807 236.423C182.954 232.747 178.07 231.32 173.689 232.888C163.219 236.638 143.65 243.353 129.544 246.451Z" fill="#9FABCE"/>
<path d="M86.231 233.651C81.002 245.211 73.725 263.644 71.798 280.294C70.943 287.685 68.128 294.714 63.39 300.45C60.476 303.977 57.53 308.983 55.958 315.796C53.815 325.083 47.238 333.564 41.913 339.192C38.808 342.474 33.274 340.615 32.776 336.125C30.415 314.831 30.957 264.278 80.813 229.155C83.84 227.023 87.757 230.278 86.231 233.651Z" fill="#9FABCE"/>
<path d="M108.464 212.481C110.417 210.115 114.264 211.675 114.019 214.733C112.836 229.501 111.261 258.031 114.892 275.279C119.079 295.168 93.446 330.347 74.108 344.325C70.495 346.937 65.699 343.218 67.292 339.053L72.952 324.254C77.22 313.093 79.553 301.265 79.624 289.316C79.725 272.061 84.087 242.006 108.464 212.481Z" fill="#9FABCE"/>
<path d="M249.341 326.56V485.659C249.341 489.87 244.58 492.177 241.433 489.491L223.958 474.579C213.384 465.556 200.085 460.618 186.356 460.618C180.333 460.618 175.353 455.782 174.997 449.586L172.496 406.094C172.199 400.933 174.496 395.977 178.578 392.971L241.704 322.512C244.9 320.158 249.341 322.512 249.341 326.56Z" fill="#9FABCE"/>
<path d="M153.688 364.861C153.688 364.861 164.781 410.127 168.775 453.401C169.083 456.735 165.91 459.414 162.572 459.686L154.003 460.547C150.433 460.838 147.254 458.296 146.753 454.75L144.931 441.866C143.318 430.465 143.857 418.863 146.519 407.661L153.688 364.861Z" fill="#9FABCE"/>
<path d="M257.794 26.4212V66.9942C257.794 78.0982 262.319 88.6932 270.265 96.1962L277.042 102.594L270.038 108.523C262.286 115.085 257.794 124.877 257.794 135.213V303.388C257.794 306.486 261.789 307.564 263.263 304.864L316.407 227.859C318.318 224.36 319.097 220.333 318.66 216.344C316.49 196.57 315.344 133.195 360.954 114.446C365.584 112.543 365.946 105.95 361.518 103.592L301.984 71.8882L267.312 23.2102C264.299 18.9812 257.794 21.1762 257.794 26.4212Z" fill="#9FABCE"/>
<path d="M393.991 114.779C387.964 111.905 381.009 111.691 374.755 114.033C364.332 117.936 348.399 124.3 340.685 140.829C335.684 151.545 390.065 148.013 394.11 187.483C394.685 193.089 397.514 198.228 401.963 201.686C405.28 204.264 406.465 204.653 429.552 225.419C432.93 228.458 438.338 226.806 439.411 222.39C444.951 199.605 452.04 142.459 393.991 114.779Z" fill="#FF4858"/>
<path d="M388.256 198.948C388.3 181.413 377.278 165.761 360.754 159.894L341.361 153.008C336.718 150.797 332.114 154.096 330.999 159.117C327.912 173.017 324.069 190.414 327.516 217.726C327.985 221.44 330.534 224.569 334.08 225.771L379.956 241.313C384.188 242.747 388.541 239.494 388.362 235.029C388.213 231.304 388.216 214.554 388.256 198.948Z" fill="#9FABCE"/>
<path d="M377.591 246.451C382.339 247.494 385.656 251.776 385.57 256.637C385.38 267.36 384.23 285.958 379.055 301.278C367.405 335.762 340.278 360.784 337.654 386.827C337.492 388.433 335.641 389.252 334.326 388.315L274.698 322.014C270.34 318.909 269.088 312.982 271.818 308.38L321.328 236.423C324.181 232.747 329.065 231.32 333.446 232.888C343.916 236.638 363.484 243.353 377.591 246.451Z" fill="#9FABCE"/>
<path d="M420.903 233.651C426.132 245.211 433.409 263.644 435.336 280.294C436.191 287.685 439.006 294.714 443.744 300.45C446.658 303.977 449.604 308.983 451.176 315.796C453.319 325.083 459.896 333.564 465.221 339.192C468.326 342.474 473.86 340.615 474.358 336.125C476.719 314.831 476.177 264.278 426.321 229.155C423.295 227.023 419.378 230.278 420.903 233.651Z" fill="#9FABCE"/>
<path d="M398.671 212.481C396.718 210.115 392.871 211.675 393.116 214.733C394.299 229.501 395.874 258.031 392.243 275.279C388.056 295.168 413.689 330.347 433.027 344.325C436.64 346.937 441.436 343.218 439.843 339.053L434.183 324.254C429.915 313.093 427.582 301.265 427.511 289.316C427.41 272.061 423.048 242.006 398.671 212.481Z" fill="#9FABCE"/>
<path d="M257.794 326.56V485.659C257.794 489.87 262.555 492.177 265.702 489.491L283.177 474.579C293.751 465.556 307.05 460.618 320.779 460.618C326.802 460.618 331.782 455.782 332.138 449.586L334.639 406.094C334.936 400.933 332.639 395.977 328.557 392.971L265.431 322.512C262.235 320.158 257.794 322.512 257.794 326.56Z" fill="#9FABCE"/>
<path d="M353.447 364.861C353.447 364.861 342.354 410.127 338.36 453.401C338.052 456.735 341.225 459.414 344.563 459.686L353.132 460.547C356.702 460.838 359.881 458.296 360.382 454.75L362.204 441.866C363.817 430.465 363.278 418.863 360.616 407.661L353.447 364.861Z" fill="#9FABCE"/>
</svg>
